src/assets/LOGO.svg

<svg fill="none" height="68" viewBox="0 0 211 68" width="211" xmlns="http://www.w3.org/2000/svg"><g fill="#ff6060"><path d="m20.0745 34.6485-11.23436 11.4877v16.1199h-8.84014v-62.2561h8.84014v34.8338l33.51886-34.8338h10.1293l-26.3362 27.9782 28.1779 34.2779h-10.3135z"/><path d="m118.789 57.2534 3.5-6.6703c4.051 2.7793 10.313 4.8174 16.391 4.8174 7.919 0 11.05-2.4087 11.05-6.485 0-10.5613-29.652-1.4823-29.652-20.1962 0-8.5231 7.551-14.0817 19.522-14.0817 6.078 0 13.076 1.6676 17.128 4.2616l-3.683 6.6703c-4.236-2.7793-8.84-3.7057-13.445-3.7057-7.366 0-11.05 2.7793-11.05 6.485 0 11.1171 29.652 2.0381 29.652 20.3814 0 8.5232-7.736 13.8965-20.259 13.8965-7.551.1853-15.286-2.2234-19.154-5.3733z"/><path d="m210.322 33.7221v28.534h-8.104v-6.2997c-2.762 4.2616-8.103 6.6703-15.47 6.6703-10.682 0-17.312-5.7439-17.312-13.8965 0-7.5967 4.788-13.7111 18.785-13.7111h13.445v-1.6676c0-7.2262-4.236-11.3025-12.524-11.3025-5.525 0-11.234 2.0382-14.918 5.0028l-3.499-6.485c4.789-3.891 11.787-6.1145 19.338-6.1145 13.076.1853 20.259 6.485 20.259 19.2698zm-8.472 14.0817v-6.6703h-13.076c-8.472 0-10.866 3.3352-10.866 7.2262 0 4.6321 3.867 7.5967 10.313 7.5967 6.446.1853 11.603-2.594 13.629-8.1526z"/><path d="m91.5323 49.842v12.5994l5.3409-3.1498v-12.5995z"/><path d="m106.266 34.4632-21.9163-12.7847-12.1552-7.0409-11.9711 20.9373.1842 19.6404 21.732 12.7847 2.2101-1.297v-18.5286l9.7609-17.2316 9.9454 5.7438v18.5287l2.21-1.297z"/></g></svg>

<svg width="211" height="68" viewBox="0 0 211 68" fill="none" xmlns="http://www.w3.org/2000/svg">
<path d="M20.0745 34.6485L8.84014 46.1362V62.2561H0V0H8.84014V34.8338L42.359 0H52.4883L26.1521 27.9782L54.33 62.2561H44.0165L20.0745 34.6485Z" fill="#FF6060"/>
<path d="M118.789 57.2534L122.289 50.5831C126.34 53.3624 132.602 55.4005 138.68 55.4005C146.599 55.4005 149.73 52.9918 149.73 48.9155C149.73 38.3542 120.078 47.4332 120.078 28.7193C120.078 20.1962 127.629 14.6376 139.6 14.6376C145.678 14.6376 152.676 16.3052 156.728 18.8992L153.045 25.5695C148.809 22.7902 144.205 21.8638 139.6 21.8638C132.234 21.8638 128.55 24.6431 128.55 28.3488C128.55 39.4659 158.202 30.3869 158.202 48.7302C158.202 57.2534 150.466 62.6267 137.943 62.6267C130.392 62.812 122.657 60.4033 118.789 57.2534Z" fill="#FF6060"/>
<path d="M210.322 33.7221V62.2561H202.218V55.9564C199.456 60.218 194.115 62.6267 186.748 62.6267C176.066 62.6267 169.436 56.8828 169.436 48.7302C169.436 41.1335 174.224 35.0191 188.221 35.0191H201.666V33.3515C201.666 26.1253 197.43 22.049 189.142 22.049C183.617 22.049 177.908 24.0872 174.224 27.0518L170.725 20.5668C175.514 16.6758 182.512 14.4523 190.063 14.4523C203.139 14.6376 210.322 20.9373 210.322 33.7221ZM201.85 47.8038V41.1335H188.774C180.302 41.1335 177.908 44.4687 177.908 48.3597C177.908 52.9918 181.775 55.9564 188.221 55.9564C194.667 56.1417 199.824 53.3624 201.85 47.8038Z" fill="#FF6060"/>
<path d="M91.5323 49.842V62.4414L96.8732 59.2916V46.6921L91.5323 49.842Z" fill="#FF6060"/>
<path d="M106.266 34.4632L84.3497 21.6785L72.1945 14.6376L60.2234 35.5749L60.4076 55.2153L82.1396 68L84.3497 66.703V48.1744L94.1106 30.9428L104.056 36.6866V55.2153L106.266 53.9183V34.4632Z" fill="#FF6060"/>
</svg>
